gtk-icons/Papirus-GTK/48x48/apps/accessories-ebook-reader.svg

<?xml version="1.0" encoding="UTF-8" standalone="no"?>
<!-- Created with Inkscape (http://www.inkscape.org/) -->

<svg
   xmlns:dc="http://purl.org/dc/elements/1.1/"
   xmlns:cc="http://creativecommons.org/ns#"
   xmlns:rdf="http://www.w3.org/1999/02/22-rdf-syntax-ns#"
   xmlns:svg="http://www.w3.org/2000/svg"
   xmlns="http://www.w3.org/2000/svg"
   xmlns:sodipodi="http://sodipodi.sourceforge.net/DTD/sodipodi-0.dtd"
   xmlns:inkscape="http://www.inkscape.org/namespaces/inkscape"
   width="48"
   height="48"
   viewBox="0 0 48 48.000001"
   id="svg4211"
   version="1.1"
   inkscape:version="0.91 r"
   sodipodi:docname="accessories-ebook-reader.svg">
  <defs
     id="defs4213" />
  <sodipodi:namedview
     id="base"
     pagecolor="#ffffff"
     bordercolor="#666666"
     borderopacity="1.0"
     inkscape:pageopacity="0.0"
     inkscape:pageshadow="2"
     inkscape:zoom="1"
     inkscape:cx="34.090659"
     inkscape:cy="20.895528"
     inkscape:document-units="px"
     inkscape:current-layer="layer1"
     showgrid="false"
     units="px"
     inkscape:window-width="1600"
     inkscape:window-height="846"
     inkscape:window-x="0"
     inkscape:window-y="26"
     inkscape:window-maximized="1" />
  <metadata
     id="metadata4216">
    <rdf:RDF>
      <cc:Work
         rdf:about="">
        <dc:format>image/svg+xml</dc:format>
        <dc:type
           rdf:resource="http://purl.org/dc/dcmitype/StillImage" />
        <dc:title></dc:title>
      </cc:Work>
    </rdf:RDF>
  </metadata>
  <g
     inkscape:label="Layer 1"
     inkscape:groupmode="layer"
     id="layer1"
     transform="translate(0,-1004.3622)">
    <path
       style="opacity:1;fill:#009587;fill-opacity:1;stroke:none"
       d="m 10,1008.3622 c -1.108,0 -2,0.892 -2,2 l 0,36 c 0,1.108 0.892,2 2,2 l 13.97852,0 14.02148,0 c 1.108,0 2,-0.892 2,-2 l 0,-36 c 0,-1.108 -0.892,-2 -2,-2 l -14.02148,0 -13.97852,0 z"
       id="path8375"
       inkscape:connector-curvature="0" />
    <path
       style="opacity:0.2;fill:#000000;fill-opacity:1;stroke:none"
       d="m 10,1008.3622 c -1.108,0 -2,0.892 -2,2 l 0,36 c 0,1.108 0.892,2 2,2 l 3.97852,0 0,-40 -3.97852,0 z"
       id="path4229"
       inkscape:connector-curvature="0" />
    <path
       sodipodi:nodetypes="cccccccc"
       inkscape:connector-curvature="0"
       id="path4452"
       d="m 31.97852,1008.3622 c -1,0 -1,1 -1,1 l 0,16.5 2.5,-1.5 2.5,1.5 0,-16.5 c 0,-1 -1,-1 -1,-1 z"
       style="display:inline;opacity:0.2;fill:#000000;fill-opacity:1;stroke:none;enable-background:new" />
    <path
       style="display:inline;fill:#d8d8d8;fill-opacity:1;stroke:none;enable-background:new"
       d="m 30.97852,1008.3622 0,16.5 2.5,-1.5 2.5,1.5 0,-16.5 -5,0 z"
       id="path5078-2"
       inkscape:connector-curvature="0" />
    <path
       style="opacity:0.2;fill:#ffffff;fill-opacity:1;stroke:none"
       d="m 10,1008.3622 c -1.108,0 -2,0.892 -2,2 l 0,1 c 0,-1.108 0.892,-2 2,-2 l 13.97852,0 14.02148,0 c 1.108,0 2,0.892 2,2 l 0,-1 c 0,-1.108 -0.892,-2 -2,-2 l -14.02148,0 -13.97852,0 z"
       id="path4374"
       inkscape:connector-curvature="0" />
    <path
       style="opacity:0.3;fill:#000000;fill-opacity:1;stroke:none"
       d="M 8 41 L 8 42 C 8 43.108 8.892 44 10 44 L 23.978516 44 L 38 44 C 39.108 44 40 43.108 40 42 L 40 41 C 40 42.108 39.108 43 38 43 L 23.978516 43 L 10 43 C 8.892 43 8 42.108 8 41 z "
       transform="translate(0,1004.3622)"
       id="path4795" />
  </g>
</svg>

<?xml version="1.0" encoding="UTF-8" standalone="no"?>
<!-- Created with Inkscape (http://www.inkscape.org/) -->
<svg id="svg4211" xmlns:rdf="http://www.w3.org/1999/02/22-rdf-syntax-ns#" xmlns="http://www.w3.org/2000/svg" height="48" width="48" version="1.1" xmlns:cc="http://creativecommons.org/ns#" xmlns:dc="http://purl.org/dc/elements/1.1/" viewBox="0 0 48 48.000001">
 <metadata id="metadata4216">
  <rdf:RDF>
   <cc:Work rdf:about="">
    <dc:format>image/svg+xml</dc:format>
    <dc:type rdf:resource="http://purl.org/dc/dcmitype/StillImage"/>
    <dc:title/>
   </cc:Work>
  </rdf:RDF>
 </metadata>
 <g id="layer1" transform="translate(0 -1004.4)">
  <path id="path8375" d="m10 1008.4c-1.108 0-2 0.892-2 2v36c0 1.108 0.892 2 2 2h13.979 14.021c1.108 0 2-0.892 2-2v-36c0-1.108-0.892-2-2-2h-14.021-13.979z" fill="#009587"/>
  <path id="path4229" opacity=".2" d="m10 1008.4c-1.108 0-2 0.892-2 2v36c0 1.108 0.892 2 2 2h3.9785v-40h-3.9785z"/>
  <path id="path4452" opacity=".2" style="enable-background:new" d="m31.979 1008.4c-1 0-1 1-1 1v16.5l2.5-1.5 2.5 1.5v-16.5c0-1-1-1-1-1z"/>
  <path id="path5078-2" style="enable-background:new" d="m30.979 1008.4v16.5l2.5-1.5 2.5 1.5v-16.5h-5z" fill="#d8d8d8"/>
  <path id="path4374" opacity=".2" d="m10 1008.4c-1.108 0-2 0.892-2 2v1c0-1.108 0.892-2 2-2h13.979 14.021c1.108 0 2 0.892 2 2v-1c0-1.108-0.892-2-2-2h-14.021-13.979z" fill="#fff"/>
  <path id="path4795" opacity=".3" d="m8 41v1c0 1.108 0.892 2 2 2h13.979 14.021c1.108 0 2-0.892 2-2v-1c0 1.108-0.892 2-2 2h-14.021-13.979c-1.108 0-2-0.892-2-2z" transform="translate(0 1004.4)"/>
 </g>
</svg>
